img/svg/contacts/info-circle.svg

<svg width="28" height="28" viewBox="0 0 28 28" fill="none" xmlns="http://www.w3.org/2000/svg">
<g clip-path="url(#clip0_8989_51041)">
<path d="M14 26.25C10.7511 26.25 7.63526 24.9594 5.33794 22.6621C3.04062 20.3647 1.75 17.2489 1.75 14C1.75 10.7511 3.04062 7.63526 5.33794 5.33794C7.63526 3.04062 10.7511 1.75 14 1.75C17.2489 1.75 20.3647 3.04062 22.6621 5.33794C24.9594 7.63526 26.25 10.7511 26.25 14C26.25 17.2489 24.9594 20.3647 22.6621 22.6621C20.3647 24.9594 17.2489 26.25 14 26.25ZM14 28C17.713 28 21.274 26.525 23.8995 23.8995C26.525 21.274 28 17.713 28 14C28 10.287 26.525 6.72601 23.8995 4.10051C21.274 1.475 17.713 0 14 0C10.287 0 6.72601 1.475 4.10051 4.10051C1.475 6.72601 0 10.287 0 14C0 17.713 1.475 21.274 4.10051 23.8995C6.72601 26.525 10.287 28 14 28Z" fill="#030303"/>
<path d="M15.6275 11.529L11.62 12.0313L11.4765 12.6963L12.264 12.8415C12.7785 12.964 12.88 13.1495 12.768 13.6623L11.4765 19.7313C11.137 21.301 11.6603 22.0395 12.8905 22.0395C13.8443 22.0395 14.952 21.5985 15.4543 20.993L15.6083 20.265C15.2583 20.573 14.7473 20.6955 14.4078 20.6955C13.9265 20.6955 13.7515 20.3578 13.8758 19.7628L15.6275 11.529ZM15.75 7.875C15.75 8.33913 15.5656 8.78425 15.2374 9.11244C14.9092 9.44063 14.4641 9.625 14 9.625C13.5359 9.625 13.0908 9.44063 12.7626 9.11244C12.4344 8.78425 12.25 8.33913 12.25 7.875C12.25 7.41087 12.4344 6.96575 12.7626 6.63756C13.0908 6.30937 13.5359 6.125 14 6.125C14.4641 6.125 14.9092 6.30937 15.2374 6.63756C15.5656 6.96575 15.75 7.41087 15.75 7.875Z" fill="#030303"/>
</g>
<defs>
<clipPath id="clip0_8989_51041">
<rect width="28" height="28" fill="white"/>
</clipPath>
</defs>
</svg>

<svg width="28" height="28" fill="none" xmlns="http://www.w3.org/2000/svg"><g clip-path="url(#clip0_8989_51041)" fill="#030303"><path d="M14 26.25a12.25 12.25 0 110-24.5 12.25 12.25 0 010 24.5zM14 28a14 14 0 100-28 14 14 0 000 28z"/><path d="M15.627 11.529l-4.007.502-.143.665.787.146c.514.122.616.307.504.82l-1.292 6.07c-.339 1.569.184 2.308 1.414 2.308.954 0 2.062-.441 2.564-1.047l.154-.728c-.35.308-.86.43-1.2.43-.481 0-.656-.337-.532-.932l1.752-8.234zm.123-3.654a1.75 1.75 0 11-3.5 0 1.75 1.75 0 013.5 0z"/></g><defs><clipPath id="clip0_8989_51041"><path fill="#fff" d="M0 0h28v28H0z"/></clipPath></defs></svg>
